static/assets/images/bell.svg

<?xml version="1.0" encoding="UTF-8"?>
<svg width="33px" height="33px" viewBox="0 0 33 33" version="1.1" xmlns="http://www.w3.org/2000/svg" xmlns:xlink="http://www.w3.org/1999/xlink">
    <!-- Generator: Sketch 58 (84663) - https://sketch.com -->
    <title>Alert_icon</title>
    <desc>Created with Sketch.</desc>
    <defs>
        <circle id="path-1" cx="15.5" cy="15.5" r="15.5"></circle>
    </defs>
    <g id="Pruebas" stroke="none" stroke-width="1" fill="none" fill-rule="evenodd">
        <g id="Common-elements" transform="translate(-170.000000, -3056.000000)">
            <g id="Alert_icon" transform="translate(171.000000, 3057.000000)">
                <g id="Group-29">
                    <g id="noun_User_2120741">
                        <g id="Shape">
                            <mask id="mask-2" fill="white">
                                <use xlink:href="#path-1"></use>
                            </mask>
                            <use id="Mask" stroke="#9F9F9F" stroke-width="1.77142857" xlink:href="#path-1"></use>
                        </g>
                    </g>
                </g>
                <g id="noun_notification_1594283" transform="translate(6.000000, 5.000000)" fill="#9F9F9F" fill-rule="nonzero">
                    <g id="Group">
                        <g id="Shape">
                            <path d="M12.7834725,17.9487179 C12.6886768,19.6495365 11.2548635,21 9.5,21 C7.74513654,21 6.31132317,19.6495365 6.2165275,17.9487179 L1.09708492,17.9487179 C0.49056111,17.9487179 0,17.4679832 0,16.872861 L0,15.7948718 C0,14.6064326 0.982396462,13.6410256 2.19307021,13.6410256 C2.19164806,13.6410256 2.19230769,9.33306389 2.19230769,9.33306389 C2.19230769,6.29877665 4.12367465,3.63845874 6.94230769,2.60571658 L6.94230769,2.51111661 C6.94230769,1.124683 8.0890516,0 9.5,0 C10.912462,0 12.0576923,1.12400619 12.0576923,2.51111661 L12.0576923,2.60577642 C14.8762558,3.63865607 16.8076923,6.29941573 16.8076923,9.33306389 L16.8076923,13.6403998 C18.0157972,13.6410256 19,14.606058 19,15.7948718 L19,16.872861 C19,17.4656258 18.5078275,17.9487179 17.9029151,17.9487179 L12.7834725,17.9487179 Z M11.3179026,17.9487179 L7.68209739,17.9487179 C7.77375858,18.8557246 8.55267677,19.5641026 9.5,19.5641026 C10.4473232,19.5641026 11.2262414,18.8557246 11.3179026,17.9487179 Z M17.5384615,16.5128205 L17.5384615,15.7948718 C17.5384615,15.3997164 17.2092558,15.0769231 16.8069298,15.0769231 C15.9993676,15.0769231 15.3461538,14.4354808 15.3461538,13.6403998 L15.3461538,9.33306389 C15.3461538,6.75733804 13.6054066,4.51723031 11.1243746,3.81407381 L10.5961538,3.66436923 L10.5961538,2.51111661 C10.5961538,1.91735428 10.1056059,1.43589744 9.5,1.43589744 C8.89567292,1.43589744 8.40384615,1.91826252 8.40384615,2.51111661 L8.40384615,3.66435774 L7.87559697,3.81404761 C5.39446158,4.51712656 3.65384615,6.75671001 3.65384615,9.33306389 L3.65384615,13.6403998 C3.65384615,14.433204 2.99903465,15.0769231 2.19307021,15.0769231 C1.7896651,15.0769231 1.46153846,15.3993751 1.46153846,15.7948718 L1.46153846,16.5128205 L17.5384615,16.5128205 Z"></path>
                        </g>
                    </g>
                </g>
            </g>
        </g>
    </g>
</svg>

<svg xmlns="http://www.w3.org/2000/svg" width="19" height="21" viewBox="0 0 19 21">
    <path fill="#9F9F9F" fill-rule="nonzero" d="M12.783 17.949C12.69 19.649 11.255 21 9.5 21s-3.189-1.35-3.283-3.051h-5.12C.491 17.949 0 17.468 0 16.873v-1.078c0-1.189.982-2.154 2.193-2.154V9.333c0-3.034 1.93-5.695 4.75-6.727V2.51C6.942 1.125 8.088 0 9.5 0c1.412 0 2.558 1.124 2.558 2.511v.095c2.818 1.033 4.75 3.693 4.75 6.727v4.307c1.208.001 2.192.966 2.192 2.155v1.078c0 .593-.492 1.076-1.097 1.076h-5.12zm-1.465 0H7.682c.092.907.87 1.615 1.818 1.615.947 0 1.726-.708 1.818-1.615zm6.22-1.436v-.718a.727.727 0 0 0-.731-.718c-.808 0-1.46-.642-1.46-1.437V9.333c0-2.576-1.742-4.816-4.223-5.519l-.528-.15V2.511c0-.594-.49-1.075-1.096-1.075-.604 0-1.096.482-1.096 1.075v1.153l-.528.15c-2.482.703-4.222 2.943-4.222 5.52v4.306a1.45 1.45 0 0 1-1.46 1.437.726.726 0 0 0-.732.718v.718h16.076z"/>
</svg>
